X: 118
T: Missa Puer natus est nobis / Gloria
N: Derived from Rue1025b-Missa_Puer_natus_est_nobis-Gloria.krn
C: Pierre de la Rue
%%abc-version 2.0
%%abcx-abcm2ps-target-version 5.9.1 (29 Sep 2008)
%%abc-creator hum2abc beta
%%abcx-conversion-date 2019/02/17 08:01:14
%%abc-edited-by Jesse Rodin
%%abc-edited-by Chris Gage 05-11-2013
%%abcx-initial-encoding-date 2013/08/01/
%%humdrum-veritas 1883343614
%%humdrum-veritas-data 2255175447
%%linebreak <none>
%%barnumbers 0
L: 1/4
M: 3/1
Q: 1/2=120
%%staves [1 2 3 4]
V: 1 clef=treble
V: 2 clef=treble-8
V: 3 clef=treble-8
V: 4 clef=bass
K: F
[V:1] G8d4 | 
[V:2] G8G4 | 
[V:3] z12 | 
[V:4] G,8B,4 | 
[V:1] d2d4cBA2B2 | 
[V:2] d8d4 | 
[V:3] z12 | 
[V:4] B,6A,G,F,2G,2 | 
[V:1] c2c4c2B2A2- | 
[V:2] _e8d4 | 
[V:3] z12 | 
[V:4] C,8D,3E, | 
[V:1] AG/F/E2D4z4 | 
[V:2] c4z2f4f2 | 
[V:3] z12 | 
[V:4] F,G,A,2D,8 | 
[V:1] z2d4c2B3G | 
[V:2] e2d3c/B/A2G4 | 
[V:3] z12 | 
[V:4] z4z4G,A,B,C | 
[V:1] A2B2G2c2B2c2 | 
[V:2] z4cdefd2c2 | 
[V:3] z12 | 
[V:4] A,2G,2C,4G,2C,2 | 
[V:1] FGABG2F4B2 | 
[V:2] f3ec2d2Bcd_e | 
[V:3] z12 | 
[V:4] D,E,F,G,E,2D,4B,,2 | 
[V:1] AGB3AG4^F2 | 
[V:2] c2B2GABcA4 | 
[V:3] z12 | 
[V:4] F,2G,4C,2D,4 | 
[V:1] G4z4z4 | 
[V:2] G4z2g2g2g2 | 
[V:3] G8G4 | 
[V:4] G,4z4z2G,2 | 
[V:1] z2d2d2d2A4- | 
[V:2] d4z2f4f2 | 
[V:3] d12- | 
[V:4] G,2G,2D,6D,2 | 
[V:1] A4z2A2A2A2 | 
[V:2] f2f2f4F4 | 
[V:3] d8d4 | 
[V:4] D,2D,2D,2F,4E,D, | 
[V:1] A2c4BAG2A2 | 
[V:2] c3cc2c2c4- | 
[V:3] e8e2f2 | 
[V:4] C,8z2F,2 | 
[V:1] G2A3Gc4=B2 | 
[V:2] c4z4g4 | 
[V:3] e2f3edcd4 | 
[V:4] C,2F,3G,A,2G,4 | 
[V:1] c4z4c4 | 
[V:2] efgea2g4f2 | 
[V:3] c12 | 
[V:4] C,D,E,C,F,2G,2A,4 | 
[V:1] B2A4G4^F2 | 
[V:2] g2d3cB2A4 | 
[V:3] z12 | 
[V:4] G,2F,2G,4D,4 | 
[V:1] G4z2G2G2G2 | 
[V:2] G8z4 | 
[V:3] d12- | 
[V:4] z4z4z2G,2 | 
[V:1] G2B4AGF2F2 | 
[V:2] z2g2g2g2d2d2 | 
[V:3] d12 | 
[V:4] G,2G,2G,2G,2B,4 | 
[V:1] A4z2A2A2A2 | 
[V:2] f2f2e8 | 
[V:3] c12- | 
[V:4] F,4A,4z2A,2 | 
[V:1] A2c4BAG3A | 
[V:2] z2e4e2e2g2- | 
[V:3] c8e4 | 
[V:4] A,2A,2A,2A,2C3B, | 
[V:1] Bcd3cB4A2 | 
[V:2] g2f2B2B2c4 | 
[V:3] d8z4 | 
[V:4] G,A,B,3A,G,2F,4 | 
[V:1] B8z4 | 
[V:2] B2d2e2g3fe2 | 
[V:3] G8G4 | 
[V:4] z12 | 
[V:1] B4B2B4B2 | 
[V:2] d2g4g6 | 
[V:3] d8d4 | 
[V:4] G,4G,2G,2G,4 | 
[V:1] A2d4c2A2B2 | 
[V:2] a2b3ag4f2 | 
[V:3] d8d4 | 
[V:4] D,2B,,4C,2D,4 | 
[V:1] c6def4 | 
[V:2] g8f3g | 
[V:3] _e8d4 | 
[V:4] C,2_E,3D,C,4=B,,2 | 
[V:1] e2e4dcd4 | 
[V:2] a2g4g2g4 | 
[V:3] c6BAG4 | 
[V:4] C,4z2C4B,2 | 
[V:1] c2A4d4^c2 | 
[V:2] e2a4gfe4 | 
[V:3] A8z4 | 
[V:4] C2F,4E,D,A,4 | 
[V:1] d8z2A2 | 
[V:2] d4z2d2d2c2 | 
[V:3] z12 | 
[V:4] D,2G,2G,2F,2G,2A,2 | 
[V:1] A2G2A2F2E3F | 
[V:2] d2B2A3Bcde2- | 
[V:3] z12 | 
[V:4] D,3E,F,G,A,3B,C2- | 
[V:1] GAG4FED4 | 
[V:2] eAe3dc4=B2 | 
[V:3] z12 | 
[V:4] C2C,2E,2F,2G,4 | 
[V:1] E3CC4z4 | 
[V:2] c4z4z4 | 
[V:3] c12- | 
[V:4] C,4z2F,2F,2E,2 | 
[V:1] z4z2c2c2B2 | 
[V:2] z12 | 
[V:3] c8d4 | 
[V:4] F,4C,2F,4G,2 | 
[V:1] c4G2c4d2 | 
[V:2] e8f4 | 
[V:3] c8c4 | 
[V:4] A,3B,C4F,4 | 
[V:1] e2e2f2f4ed | 
[V:2] g4a4d4 | 
[V:3] G2c4BAB4 | 
[V:4] E,4D,8 | 
[V:1] e2d3cc4=B2 | 
[V:2] g2g4f2g4 | 
[V:3] c2B2c4d4 | 
[V:4] C,2G,2A,4G,4 | 
[V:1] c12 | 
[V:2] e3fg2a4g2 | 
[V:3] c12- | 
[V:4] C,4z2F,3E,E,2 | 
[V:1] z4z4c4 | 
[V:2] a2e2a2g4^f2 | 
[V:3] c12 | 
[V:4] F,2C,2F,2G,2A,4 | 
[V:1] B6AGF2G2 | 
[V:2] g8z4 | 
[V:3] d8d2e2 | 
[V:4] G,8z4 | 
[V:1] A2B3AG4^F2 | 
[V:2] z12 | 
[V:3] c2d4cBA4 | 
[V:4] z12 | 
[V:1] G4d2d2A2c2- | 
[V:2] g2g2d2f3ec2 | 
[V:3] G4z2d2d2A2 | 
[V:4] z2G,2G,2D,2F,3E, | 
[V:1] cBG2d2d2A2c2- | 
[V:2] g2g2d2f3ec2 | 
[V:3] c3BG2d2d2A2 | 
[V:4] C,2G,2G,2D,2F,3E, | 
[V:1] cBG2d3cBAf2- | 
[V:2] g4g2f2f4 | 
[V:3] c3BG2d3cBA | 
[V:4] C,2G,3F,D,4D,2 | 
[V:1] fedcBAd4cB | 
[V:2] a3gfed2A4 | 
[V:3] f3edcBAd2d2- | 
[V:4] D,12- | 
[V:1] AGB2AGG4^F2 | 
[V:2] f6edd4 | 
[V:3] d2cBcBAGA4 | 
[V:4] D,12 | 
[V:1] G12 ||  
[V:2] d12 ||  
[V:3] G12 ||  
[V:4] G,,12 ||  
[V:1]  [K:F] [K:clef=treble][M:2/1]z8 | 
[V:2]  [K:F] [K:clef=treble-8][M:2/1]g4d2g2- | 
[V:3]  [K:F] [K:clef=treble-8][M:2/1]G8- | 
[V:4]  [K:F] [K:clef=bass][M:2/1]z8 | 
[V:1] z8 | 
[V:2] g2fed2e2 | 
[V:3] G8 | 
[V:4] z4G,4 | 
[V:1] z8 | 
[V:2] f2B4AG | 
[V:3] d8 | 
[V:4] D,2G,4F,E, | 
[V:1] d4A2d2- | 
[V:2] F3GA2F2 | 
[V:3] d8- | 
[V:4] D,3E,F,4 | 
[V:1] d2cBA2B2 | 
[V:2] f8 | 
[V:3] d8 | 
[V:4] D,8 | 
[V:1] c4G2c2- | 
[V:2] g4gf_ed | 
[V:3] _e8- | 
[V:4] C,8- | 
[V:1] c2BAG2A2 | 
[V:2] c4c4 | 
[V:3] e8 | 
[V:4] C,8 | 
[V:1] B4F2B2- | 
[V:2] z8 | 
[V:3] d8- | 
[V:4] G,4D,2G,2- | 
[V:1] B2AGF2D2 | 
[V:2] z8 | 
[V:3] d8 | 
[V:4] G,2F,E,D,2G,2 | 
[V:1] E2F2C2F2 | 
[V:2] z2A2G2A2 | 
[V:3] c8 | 
[V:4] C,2F,2E,2F,2 | 
[V:1] E2F2G2A2- | 
[V:2] G2A2G2c2- | 
[V:3] c8 | 
[V:4] C,2F,2E,2F,2 | 
[V:1] AGG4^F2 | 
[V:2] cBAGA4 | 
[V:3] z8 | 
[V:4] G,4D,4 | 
[V:1] G8 | 
[V:2] G8 | 
[V:3] d8- | 
[V:4] z4G,4 | 
[V:1] z8 | 
[V:2] z8 | 
[V:3] d8 | 
[V:4] G,6F,E, | 
[V:1] z8 | 
[V:2] z8 | 
[V:3] d4c4 | 
[V:4] F,2G,2A,2F,2 | 
[V:1] z8 | 
[V:2] z8 | 
[V:3] c2e4dc | 
[V:4] A,4G,2C2- | 
[V:1] z8 | 
[V:2] z8 | 
[V:3] d4z2g2- | 
[V:4] C2B,2A,2G,2- | 
[V:1] z8 | 
[V:2] z8 | 
[V:3] g2f2e2d2- | 
[V:4] G,F,/E,/D,2C,2G,2- | 
[V:1] z8 | 
[V:2] z8 | 
[V:3] dc/B/A2G2d2- | 
[V:4] G,2F,2E,2D,2 | 
[V:1] z8 | 
[V:2] z8 | 
[V:3] d2c2B2A2 | 
[V:4] A,4G,2F,2 | 
[V:1] z8 | 
[V:2] z8 | 
[V:3] d2d4^c2 | 
[V:4] D,2F,2E,4 | 
[V:1] A8 | 
[V:2] f4f2f2 | 
[V:3] d8- | 
[V:4] D,8- | 
[V:1] A4A4 | 
[V:2] f4f4 | 
[V:3] d8- | 
[V:4] D,8 | 
[V:1] B4B2B2 | 
[V:2] g4g4 | 
[V:3] d8- | 
[V:4] G,8 | 
[V:1] A4F4 | 
[V:2] f4z2d2 | 
[V:3] d8 | 
[V:4] D,8 | 
[V:1] z2A2c4 | 
[V:2] f4f4 | 
[V:3] z8 | 
[V:4] z8 | 
[V:1] c4A2c2- | 
[V:2] c2f2f3e | 
[V:3] z8 | 
[V:4] z8 | 
[V:1] cBG2F2c2 | 
[V:2] c2B2f2e2 | 
[V:3] z8 | 
[V:4] z8 | 
[V:1] B2d3cA2 | 
[V:2] g3fd2c2 | 
[V:3] z8 | 
[V:4] z8 | 
[V:1] G2d2c2e2- | 
[V:2] g2f2a4 | 
[V:3] z8 | 
[V:4] z8 | 
[V:1] edd4^c2 | 
[V:2] gfede4 | 
[V:3] z8 | 
[V:4] z8 | 
[V:1] d8 | 
[V:2] d4z2B2 | 
[V:3] G8- | 
[V:4] z2B,2B,4 | 
[V:1] z8 | 
[V:2] B4G2B2- | 
[V:3] G8 | 
[V:4] G,2B,3A,G,2- | 
[V:1] z4z2A2 | 
[V:2] BAG4^F2 | 
[V:3] d8- | 
[V:4] G,2F,E,D,4 | 
[V:1] B4G2B2- | 
[V:2] G8 | 
[V:3] d8 | 
[V:4] z2B,3A,G,2- | 
[V:1] BAG4F2 | 
[V:2] G4A4 | 
[V:3] d8- | 
[V:4] G,2F,E,D,4 | 
[V:1] G2FED4 | 
[V:2] G2c4=B2 | 
[V:3] d8 | 
[V:4] G,8 | 
[V:1] C8 | 
[V:2] c4G4- | 
[V:3] _e8- | 
[V:4] C,8 | 
[V:1] C4C4 | 
[V:2] G4G4 | 
[V:3] e8 | 
[V:4] C,4C,4 | 
[V:1] F8 | 
[V:2] F8 | 
[V:3] d8- | 
[V:4] D,8 | 
[V:1] F8 | 
[V:2] B6AG | 
[V:3] d8 | 
[V:4] B,,8 | 
[V:1] E4E2D2- | 
[V:2] G4z4 | 
[V:3] c4z4 | 
[V:4] C,3D,E,2F,2- | 
[V:1] D2C4=B,2 | 
[V:2] z8 | 
[V:3] z8 | 
[V:4] F,C,E,2D,4 | 
[V:1] C4z2G2- | 
[V:2] z2G3A/B/c2- | 
[V:3] _e8- | 
[V:4] C,8- | 
[V:1] GA/B/c3BAG | 
[V:2] c2G2c4 | 
[V:3] e8 | 
[V:4] C,8 | 
[V:1] F4z2A2- | 
[V:2] z2A3B/c/d2- | 
[V:3] d8- | 
[V:4] D,8- | 
[V:1] AB/c/d3cBA | 
[V:2] d2A2B2G2 | 
[V:3] d8 | 
[V:4] D,4B,,4 | 
[V:1] G2c2B2A2- | 
[V:2] G4z4 | 
[V:3] _e4d2c2- | 
[V:4] C,4G,2A,2 | 
[V:1] A2G3^FF2 | 
[V:2] z8 | 
[V:3] cBAGA4 | 
[V:4] F,2G,2D,4 | 
[V:1] G8 | 
[V:2] d4d2e2- | 
[V:3] G8 | 
[V:4] z4G,4 | 
[V:1] z8 | 
[V:2] e2e2f3e | 
[V:3] z8 | 
[V:4] G,2A,4A,2 | 
[V:1] z8 | 
[V:2] d2c2c2f2- | 
[V:3] z8 | 
[V:4] B,2A,2F,4 | 
[V:1] z8 | 
[V:2] fedcd2e2- | 
[V:3] z8 | 
[V:4] B,3A,G,F,G,2- | 
[V:1] z4G4 | 
[V:2] e2d4^c2 | 
[V:3] G8 | 
[V:4] G,F,E,D,E,4 | 
[V:1] F4F4 | 
[V:2] d8- | 
[V:3] A8 | 
[V:4] D,8- | 
[V:1] F8 | 
[V:2] d8 | 
[V:3] A4A4 | 
[V:4] D,8 | 
[V:1] E3FG2A2- | 
[V:2] z8 | 
[V:3] c3de2f2- | 
[V:4] z8 | 
[V:1] A2GFE4 | 
[V:2] z4g4 | 
[V:3] fed4^c2 | 
[V:4] z8 | 
[V:1] D4z2d2 | 
[V:2] f4f4 | 
[V:3] d8- | 
[V:4] z8 | 
[V:1] d4d4 | 
[V:2] f8 | 
[V:3] d8 | 
[V:4] z8 | 
[V:1] c3de2f2- | 
[V:2] e3fg2a2- | 
[V:3] z8 | 
[V:4] z8 | 
[V:1] fed4^c2 | 
[V:2] a2gfe4 | 
[V:3] z8 | 
[V:4] z8 | 
[V:1] d4z2d2 | 
[V:2] d8 | 
[V:3] f8- | 
[V:4] D,8 | 
[V:1] d2f4ed | 
[V:2] z4a4 | 
[V:3] f8 | 
[V:4] D,4D,4 | 
[V:1] c4c4 | 
[V:2] a2a4a2 | 
[V:3] e8- | 
[V:4] A,4A,4- | 
[V:1] c2c2c4 | 
[V:2] a2a2g4 | 
[V:3] e8 | 
[V:4] A,4C4 | 
[V:1] B4A2B2- | 
[V:2] z2G2A2G2 | 
[V:3] d8- | 
[V:4] G,4F,2G,2- | 
[V:1] B2A4G2 | 
[V:2] B2c2d4 | 
[V:3] d8 | 
[V:4] G,2A,2B,4 | 
[V:1] A4z2A2 | 
[V:2] z2e2f2f2 | 
[V:3] c8- | 
[V:4] A,8- | 
[V:1] c2c2c2c2 | 
[V:2] e4f4 | 
[V:3] c8 | 
[V:4] A,2A,2A,2A,2 | 
[V:1] B4B4 | 
[V:2] g4f4 | 
[V:3] d8 | 
[V:4] G,4B,4 | 
[V:1] A4A2B2- | 
[V:2] f2f3ed2- | 
[V:3] c6B2 | 
[V:4] F,4F,2G,2- | 
[V:1] BAG4^F2 | 
[V:2] d2c2d4 | 
[V:3] G4A4 | 
[V:4] G,F,E,2D,4 | 
[V:1] G4z2d2- | 
[V:2] z2g4f2 | 
[V:3] G8 | 
[V:4] G,4z2B,2- | 
[V:1] d2c2B2A2 | 
[V:2] e2c2d4 | 
[V:3] z8 | 
[V:4] B,2A,2G,2F,2 | 
[V:1] c6B2 | 
[V:2] c8 | 
[V:3] z2e4d2 | 
[V:4] A,6B,2 | 
[V:1] A2G2B4 | 
[V:2] z8 | 
[V:3] c2B2d4 | 
[V:4] C2D2G,4 | 
[V:1] A6G2 | 
[V:2] z2f4e2 | 
[V:3] c6B2 | 
[V:4] A,4F,2G,2 | 
[V:1] F2E2G4- | 
[V:2] d2c2e4 | 
[V:3] A2G2B4 | 
[V:4] D,2E,3F,G,2 | 
[V:1] G4^F4 | 
[V:2] d8 | 
[V:3] A8 | 
[V:4] D,8 | 
[V:1] G8- | 
[V:2] d8- | 
[V:3] G8 | 
[V:4] G,8- | 
[V:1] G8- | 
[V:2] d8 | 
[V:3] G8- | 
[V:4] G,8- | 
[V:1] G8 |]  
[V:2] d8 |]  
[V:3] G8 |]  
[V:4] G,8 |]  



